src/assets/dark/IconStarsActive.svg

<svg width="44" height="44" viewBox="0 0 44 44" fill="none" xmlns="http://www.w3.org/2000/svg">
<path fill-rule="evenodd" clip-rule="evenodd" d="M22.3511 43.7246C34.2252 43.7246 43.8511 34.0987 43.8511 22.2246C43.8511 10.3505 34.2252 0.724609 22.3511 0.724609C10.477 0.724609 0.851074 10.3505 0.851074 22.2246C0.851074 34.0987 10.477 43.7246 22.3511 43.7246Z" fill="url(#paint0_linear)"/>
<path d="M18.9724 10.8093L20.6415 15.0385C20.6666 15.1013 20.7356 15.1327 20.7984 15.1138L25.1468 13.7836C25.2598 13.7522 25.3539 13.8714 25.2911 13.9655L23.0259 17.9061C22.9946 17.9626 23.0071 18.0379 23.0636 18.0755L26.8159 20.6419C26.91 20.7047 26.8787 20.8553 26.7657 20.8741L22.273 21.558C22.2102 21.5706 22.16 21.6271 22.1663 21.6898L22.4989 26.2202C22.5051 26.3332 22.3734 26.4022 22.2855 26.3206L18.9473 23.2334C18.8971 23.1895 18.8218 23.1895 18.7779 23.2334L15.4397 26.3206C15.3581 26.3959 15.2201 26.3332 15.2264 26.2202L15.5589 21.6898C15.5652 21.6208 15.515 21.5643 15.4523 21.558L10.9595 20.8741C10.8466 20.8553 10.8089 20.7109 10.9093 20.6419L14.6616 18.0755C14.7181 18.0379 14.7307 17.9626 14.6993 17.9061L12.4341 13.9655C12.3776 13.8651 12.4717 13.7459 12.5784 13.7836L16.9268 15.1138C16.9896 15.1327 17.0586 15.1013 17.0837 15.0385L18.7528 10.8093C18.7779 10.6964 18.9285 10.6964 18.9724 10.8093Z" fill="white"/>
<path d="M31.4563 23.1309L32.5041 25.2517L34.8509 25.5969L33.1567 27.2471L33.552 29.5813L31.4563 28.477L29.3605 29.5813L29.7621 27.2471L28.0679 25.5969L30.4084 25.2517L31.4563 23.1309Z" fill="white"/>
<path d="M19.63 34.6301C20.669 34.6301 21.5114 33.7877 21.5114 32.7486C21.5114 31.7095 20.669 30.8672 19.63 30.8672C18.5909 30.8672 17.7485 31.7095 17.7485 32.7486C17.7485 33.7877 18.5909 34.6301 19.63 34.6301Z" fill="white"/>
<defs>
<linearGradient id="paint0_linear" x1="0.851075" y1="9.40069" x2="45.6974" y2="41.1306" gradientUnits="userSpaceOnUse">
<stop stop-color="#6C5BC2"/>
<stop offset="1" stop-color="#5A42AC"/>
</linearGradient>
</defs>
</svg>

<svg width="44" height="44" fill="none" xmlns="http://www.w3.org/2000/svg"><path fill-rule="evenodd" clip-rule="evenodd" d="M22.351 43.725c11.874 0 21.5-9.626 21.5-21.5 0-11.875-9.626-21.5-21.5-21.5s-21.5 9.626-21.5 21.5 9.626 21.5 21.5 21.5z" fill="url(#paint0_linear)"/><path d="M18.972 10.81l1.67 4.229a.13.13 0 00.156.075l4.349-1.33c.113-.032.207.087.144.181l-2.265 3.941a.129.129 0 00.038.17l3.752 2.566c.094.063.063.213-.05.232l-4.493.684c-.063.013-.113.07-.107.132l.333 4.53a.126.126 0 01-.213.1l-3.339-3.087c-.05-.044-.125-.044-.17 0l-3.337 3.088c-.082.075-.22.012-.214-.1l.333-4.531a.12.12 0 00-.107-.132l-4.492-.684a.127.127 0 01-.05-.232l3.752-2.566a.129.129 0 00.037-.17l-2.265-3.94c-.056-.1.038-.22.144-.182l4.349 1.33a.13.13 0 00.157-.075l1.669-4.23c.025-.113.175-.113.22 0zM31.456 23.13l1.048 2.122 2.347.345-1.694 1.65.395 2.334-2.096-1.104-2.096 1.104.402-2.334-1.694-1.65 2.34-.345 1.048-2.121zM19.63 34.63a1.882 1.882 0 100-3.763 1.882 1.882 0 000 3.763z" fill="#fff"/><defs><linearGradient id="paint0_linear" x1=".851" y1="9.401" x2="45.697" y2="41.131" gradientUnits="userSpaceOnUse"><stop stop-color="#6C5BC2"/><stop offset="1" stop-color="#5A42AC"/></linearGradient></defs></svg>
